!!!COM: Beethoven, Ludwig van
!!!CDT: 1770///-1827///
!!!OTL: Piano Sonata no. 22 in F major
!!!ODT: 1804///
!!!OMD: In tempo d'un menuetto
!!!OPS: 54
!!!OMV: 1
!!!AGN: Sonata
**kern	**kern	**dynam
*staff2	*staff1	*staff1/2
*Ipiano	*Ipiano	*Ipiano
*clefF4	*clefF4	*clefF4
*k[b-]	*k[b-]	*k[b-]
*F:	*F:	*F:
*M3/4	*M3/4	*M3/4
*MM118	*MM118	*MM118
4r	(8.CL	p
.	16EJk)	.
=1	=1	=1
*	*^	*
(4FFF [4FF	2F	(4AA	p
8GGG) 8FF]	.	8BB-)	.
8r	.	8r	.
*	*clefG2	*clefG2	*
4r	4r	(8.cL	.
.	.	16eJk)	.
=2	=2	=2	=2
*^	*	*	*
4.F	(4AA	2f	(4c	.
.	8BB-)	.	8d)	.
8r	8r	.	8r	.
4r	4r	(8.ccL	4r	.
.	.	16ffJk)	.	.
*clefG2	*clefG2	*	*	*
*	*	*v	*v	*
=3	=3	=3	=3
8.fL	2c	[4aa	.
16ak	.	.	.
8.cc	.	(8.aaL]	.
16ak	.	16ffk	.
8.b-	4c	8.gg	.
16gJk	.	16eeJk	.
=4	=4	=4	=4
4a	4f	4ff)	.
4r	4r	4r	.
*	*	*clefF4	*clefF4
4r	4r	(8.CL	.
.	.	16EJk)	.
*v	*v	*	*
*clefF4	*	*
=5	=5	=5
*	*^	*
(4FFF [4FF	2F	(4AA	.
8GGG) 8FF]	.	8BB-)	.
8r	.	8r	.
*	*clefG2	*clefG2	*
4r	4r	(8.cL	.
.	.	16eJk)	.
=6	=6	=6	=6
*^	*	*	*
4.F	(4AA	2f	(4c	.
.	8BB-)	.	8d)	.
8r	8r	.	8r	.
4r	4r	4r	(8.ccL	.
.	.	.	16ffJk)	.
*clefG2	*clefG2	*	*	*
*	*	*v	*v	*
=7	=7	=7	=7
8.fL	2c	[4aa	.
16ak	.	.	.
8.cc	.	(8.aaL]	.
16ak	.	16ffk	.
8.b-	4c	8.gg	.
16gJk	.	16eeJk	.
=8	=8	=8	=8
4a	4f	4ff)	.
4r	4r	4r	.
*	*	*clefF4	*clefF4
4r	4r	(8.FL	.
.	.	16AJk	.
*clefF4	*clefF4	*	*
=9	=9	=9	=9
4FF	2.FF	4c#	.
4BB-	.	[4d	.
4GG 4E	.	8.dL]	.
.	.	16BnJk	.
=10	=10	=10	=10
[4AA	4.FF	8.cnL	.
.	.	16AJk	.
8AA] 8C	.	8F)	.
8r	8r	8r	.
*	*	*clefG2	*clefG2
4r	4r	(8.fL	.
.	.	16aJk	.
=11	=11	=11	=11
4F	2.F	4cc#	.
4B-	.	[4dd	.
4G 4e	.	8.ddL]	.
.	.	16bnJk	.
=12	=12	=12	=12
4A	(4.F	8.ccnL	.
.	.	16aJk	.
8A) 8c	.	8f)	.
8r	8r	8r	.
4r	4r	8.ffL	.
.	.	16aaJk	.
*clefG2	*clefG2	*	*
=13	=13	=13	=13
*	*	*^	*
4r	4r	4r	(4ccc#	.
[4b-	4f	[4dd [4ddd	4r	.
8.b-L]	8.gL	8.dd] 8.dddL]	4r	.
16gJk	16fJk	16dd 16bbnJk	.	.
*v	*v	*	*	*
*	*v	*v	*
=14	=14	=14
8.e 8.gL	8.ccn 8.cccnL	.
16f 16aJk	16cc 16aaJk	.
4d 4f	[4b- [4bb-	.
8.e 8.gL	8.b-] 8.bb-L]	.
16d 16fJk	16b- 16ggJk	.
=15	=15	=15
*^	*^	*
8.c# 8.eL	4r	8.aaL	8.aL	.
16d 16fJk	.	(16ffJk)	16aJk	.
[4d	2B-	[4gg	4g	.
8.dL]	.	8.ggL]	4b-	.
16gJk	.	16ddJk)	.	.
*clefF4	*clefF4	*	*	*
=16	=16	=16	=16	=16
(8.gL	4c	8.eeL	4b-	p
16eJk	.	16ggJk	.	.
8f)	8F	8ff	8a	.
8r	8r	8r	8r	.
*	*	*clefF4	*clefF4	*
4r	4r	4r	(8.FL	.
.	.	.	16AJk)	.
*	*	*v	*v	*
=17	=17	=17	=17
4FF	2.FF	(4c#	.
4BB-	.	[4d	.
4GG 4E	.	8.dL]	.
.	.	16BnJk	.
=18	=18	=18	=18
[4AA	4.FF	8.cnL	.
.	.	16AJk)	.
8AA] 8C	.	8F	.
8r	8r	8r	.
*	*	*clefG2	*clefG2
4r	4r	(8.fL	.
.	.	16aJk)	.
=19	=19	=19	=19
4F	2.F	(4cc#	.
4B-	.	[4dd	.
4G 4e	.	8.ddL]	.
.	.	16bnJk	.
=20	=20	=20	=20
[4A	4.F	8.ccnL	.
.	.	16aJk	.
8A] 8c	.	8f)	.
8r	8r	8r	.
4r	4r	(8.ffL	.
.	.	16aaJk)	.
*v	*v	*	*
*clefG2	*	*
=21	=21	=21
*^	*^	*
4r	4r	(4ccc#	4r	.
[4b-	4f	[4ddd	[4dd	.
8.b-L]	8.gL	8.dddL]	8.ddL]	.
16gJk	16fJk	16bbnJk	16ddJk	.
*v	*v	*	*	*
=22	=22	=22	=22
8.e 8.gL	8.cccnL	8.ccnL	.
16f 16aJk	16aaJk	16ccJk	.
4d 4f	[4bb-	4b-	.
8.e 8.gL	8.bb-L]	8.b-L	.
16d 16fJk	16ggJk	16b-Jk	.
=23	=23	=23	=23
*^	*	*	*
8.c# 8.eL	4r	8.aaL	8.aL	.
16d 16fJk	.	16ffJk	16aJk	.
[4d	2B-'	[4gg	4g	.
8.dL]	.	8.ggL]	4b-	.
16gJk	.	16ddJk)	.	.
*clefF4	*clefF4	*	*	*
=24	=24	=24	=24	=24
(8.gL	4c	8.eeL	(4b-	p
16eJk	.	16ggJk	.	.
8f)	8F	8ff	8a)	.
8r	8r	8r	8r	.
12CC'' 12C''L	4r	4r	4r	f
12C'' 12c''	.	.	.	.
12BBn'' 12Bn''J	.	.	.	.
*v	*v	*	*	*
*	*v	*v	*
=25	=25	=25
12C'' 12c''L	4r	.
12BB-'' 12B-''	.	.
12AA'' 12A''J	.	.
12GG'' 12G''L	4r	.
12AA'' 12A''	.	.
12BB-'' 12B-''J	.	.
12AA'' 12A''L	12c'' 12cc''L	f
12AA'' 12A''	12cc'' 12ccc''	.
12GG#'' 12G#''J	12bn'' 12bbn''J	.
=26	=26	=26
12AA'' 12A''L	12cc'' 12ccc''L	.
12BB-'' 12B-''	12b-'' 12bb-''	.
12C'' 12c''J	12a'' 12aa''J	.
12BB-'' 12B-''L	12g'' 12gg''L	.
12AA'' 12A''	12a'' 12aa''	.
12GG 12GJ	12b-'' 12bb-''J	.
12FF'' 12F''L	12a'' 12aa''L	.
12GG'' 12G''	12g'' 12gg''	.
12AA'' 12A''J	12f'' 12ff''J	.
=27	=27	=27
12GG 12GL	12e 12eeL	.
12FF 12F	12f 12ff	.
12EE 12EJ	12g 12ggJ	.
12DD 12DL	12f 12ffL	.
12EE 12E	12e 12ee	.
12FF 12FJ	12d 12ddJ	.
12EE 12EL	12c# 12cc#L	.
12DD 12D	12d 12dd	.
12CCn 12CnJ	12e 12eeJ	.
=28	=28	=28
12BBB- 12BB-L	12d 12ddL	.
12AAA 12AA	12cn 12ccn	.
12BBB- 12BB-J	12B- 12b-J	.
12BBBn 12BBnL	12A 12aL	.
12AAA 12AA	12G 12g	.
12BBB 12BBJ	12F 12fJ	.
4CC 4C	12E 12eL	.
.	12c 12cc	.
.	12Bn 12bnJ	.
=29	=29	=29
4r	12c 12ccL	.
.	12B- 12b-	.
.	12A 12aJ	.
4r	12G 12gL	.
.	12A 12a	.
.	12B- 12b-J	.
12CL	12A 12aL	.
12c	12a 12aa	.
12Bn 12cJ	12g# 12gg#J	.
=30	=30	=30
12cL	12a 12aaL	.
12B- 12c	12gn 12ggn	.
12A 12cJ	12f 12ffJ	.
12B- 12cL	12g 12eeL	ff
12A 12c	12a 12ff	.
12G 12cJ	12b- 12ggJ	.
12A 12cL	12a 12ffL	.
12G 12c	12b- 12gg	.
12F 12cJ	12cc 12aaJ	.
=31	=31	=31
12G 12AL	12e 12cc#L	.
12F 12A	12f 12dd	.
12E 12AJ	12g 12eeJ	.
12F 12AL	12f 12ddL	.
12E 12A	12g 12ee	.
12D 12AJ	12a 12ffJ	.
12F 12GL	12d 12bnL	.
12E 12G	12e 12ccn	.
12D 12GJ	12f 12ddJ	.
=32	=32	=32
12E 12GL	12e 12ccL	.
12D 12G	12f 12dd	.
12C 12GJ	12g 12eeJ	.
12G 12AL	12e 12cc#L	.
12F 12A	12f 12dd	.
12E 12AJ	12g 12eeJ	.
12F 12AL	12f 12ddL	.
12E 12A	12g 12ee	.
12D 12AJ	12a 12ffJ	.
=33	=33	=33
12F 12GL	12d 12bnL	.
12E 12G	12e 12ccn	.
12D 12GJ	12f 12ddJ	.
12E 12GL	12e 12ccL	.
12D 12G	12f 12dd	.
12C 12GJ	12g 12eeJ	.
12EL	12c 12ccL	.
12D	12d 12dd	.
12CJ	12e 12eeJ	.
=34	=34	=34
12BBnL	12f 12ffL	.
12AA	12g 12gg	.
12GGJ	12a 12aaJ	.
12FFL	12bn 12bbnL	.
12EE	12cc 12ccc	.
12DDJ	12dd 12dddJ	.
12CC 12GGL	12ee 12eeeL	.
12DD 12GG	12dd 12ddd	.
12EE 12GGJ	12cc 12cccJ	.
=35	=35	=35
12FF 12GGL	12bn 12bbnL	.
12EE 12GG	12cc 12ccc	.
12DD 12GGJ	12dd 12dddJ	.
12CC 12GGL	12ee 12eeeL	.
12DD 12GG	12dd 12ddd	.
12EE 12GGJ	12cc 12cccJ	.
12FF 12GGL	12b 12bbL	.
12EE 12GG	12cc 12ccc	.
12DD 12GGJ	12dd 12dddJ	.
=36	=36	=36
(12CCL	12ee 12eeeL	.
12DD	12dd 12ddd	.
12EEJ	12cc 12cccJ	.
12FFL	12ee 12eeeL	.
12FF#	12dd 12ddd	.
12GGJ	12cc 12cccJ	.
12GG#L	12ee 12eeeL	.
12AA	12dd 12ddd	.
12FF#J	12cc 12cccJ	.
=37	=37	=37
12GGnL)	12bn 12bbnL	.
12GG'	12a 12aa	.
12AA'J	12g 12ggJ	.
12BBn'L	12f 12ffL	.
12C'	12e 12ee	.
12D'J	12d 12ddJ	.
12E'L	12c 12ccL	.
12F'	12d 12dd	.
12G'J	12Bn 12bnJ	.
=38	=38	=38
8C	12c 12ccL	.
.	12D	.
8r	.	.
.	12BB-J	.
4r	8C	.
.	8r	.
12EE-'' 12E-''L	4r	f
12E-'' 12e-''	.	.
12D'' 12d''J	.	.
=39	=39	=39
12E-'' 12e-''L	4r	.
12D-'' 12d-''	.	.
12C'' 12c''J	.	.
12BB-'' 12B-''L	4r	.
12C'' 12c''	.	.
12D-'' 12d-''J	.	.
12C'' 12c''L	12e-'' 12ee-''L	f
12C'' 12c''	12ee-'' 12eee-''	.
12BBn'' 12Bn''J	12ddn'' 12dddn''J	.
=40	=40	=40
12C 12cL	12ee- 12eee-L	.
12D- 12d-	12dd- 12ddd-	.
12E- 12e-J	12cc 12cccJ	.
12D- 12d-L	12b- 12bb-L	.
12C 12c	12cc 12ccc	.
12BB- 12B-J	12dd- 12ddd-J	.
12AA- 12A-L	12cc 12cccL	.
12BB- 12B-	12b- 12bb-	.
12C 12cJ	12a- 12aa-J	.
=41	=41	=41
12BB- 12B-L	12g 12ggL	.
12AA- 12A-	12a- 12aa-	.
12GG 12GJ	12b- 12bb-J	.
12FF 12FL	12a- 12aa-L	.
12GG 12G	12g 12gg	.
12AA- 12A-J	12f 12ffJ	.
12GG 12GL	12e- 12ee-L	.
12FF 12F	12f 12ff	.
12EE- 12E-J	12g 12ggJ	.
=42	=42	=42
12DD- 12D-L	12f 12ffL	.
12CC 12C	12e- 12ee-	.
12DD- 12D-J	12d- 12dd-J	.
12DDn 12DnL	12c 12ccL	.
12CC 12C	12B- 12b-	.
12DD 12DJ	12A- 12a-J	.
8EE- 8E-	12G 12gL	.
.	12e- 12ee-	.
8r	.	.
.	12dn 12ddnJ	.
=43	=43	=43
4r	12e- 12ee-L	.
.	12d- 12dd-	.
.	12c 12ccJ	.
4r	12B- 12b-L	.
.	12c 12cc	.
.	12d- 12dd-J	.
12E-L	12c 12ccL	.
12e-	12cc 12ccc	.
12dn 12e-J	12bn 12bbnJ	.
=44	=44	=44
12e-L	12cc 12cccL	.
12d- 12e-	12b- 12bb-	.
12c 12e-J	12a- 12aa-J	.
12d- 12e-L	12b- 12ggL	.
12c 12e-	12cc 12aa-	.
12B- 12e-J	12dd- 12bb-J	.
12c 12e-L	12cc 12aa-L	.
12B- 12e-	12dd- 12bb-	.
12A- 12e-J	12ee- 12cccJ	.
=45	=45	=45
12B- 12cL	12g 12eenL	.
12A- 12c	12a- 12ff	.
12G 12cJ	12b- 12ggJ	.
12A- 12cL	12a- 12ffL	.
12G 12c	12b- 12gg	.
12F 12cJ	12cc 12aa-J	.
12G- 12A-L	12e- 12ccL	.
12F 12A-	12f 12dd-	.
12E- 12A-J	12g- 12ee-J	.
=46	=46	=46
12F 12A-L	12f 12dd-L	.
12E- 12A-	12g- 12ee-	.
12D- 12A-J	12a- 12ffJ	.
12E- 12FL	12c 12anL	.
12D- 12F	12d- 12b-	.
12C 12FJ	12e- 12ccJ	.
12D- 12FL	12d- 12b-L	.
12C 12F	12f 12cc	.
12BB- 12FJ	12f 12dd-J	.
=47	=47	=47
12D- 12E-L	12B- 12gL	.
12C 12E-	12c 12a-	.
12BB- 12E-J	12d- 12b-J	.
12C 12E-L	12c 12a-L	.
12BB- 12E-	12d- 12b-	.
12AA- 12E-J	12e- 12ccJ	.
12E- 12FL	12c 12anL	.
12D- 12F	12d- 12b-	.
12C 12FJ	12e- 12ccJ	.
=48	=48	=48
12D- 12FL	12d- 12b-L	.
12C 12F	12e- 12cc	.
12BB- 12FJ	12f 12ddJ	.
12D- 12E-L	12B- 12gL	.
12C 12E-	12c 12a-	.
12BB- 12E-J	12d- 12b-J	.
12C 12E-L	12c 12a-L	.
12BB- 12E-	12d- 12b-	.
12AA- 12E-J	12e- 12ccJ	.
=49	=49	=49
12D- 12E-L	12B- 12gL	.
12C 12E-	12c 12a-	.
12BB- 12E-J	12d- 12b-J	.
12C 12E-L	12A- 12a-L	.
12BB- 12E-	12B- 12b-	.
12AA- 12E-J	12c 12ccJ	.
12C 12E-L	12A- 12a-L	.
12BB- 12E-	12B- 12b-	.
12AA- 12E-J	12c 12ccJ	.
=50	=50	=50
12GGL	12d- 12dd-L	.
12FF	12e- 12ee-	.
12EE-J	12f 12ffJ	.
12DD-L	12g 12ggL	.
12CC	12a- 12aa-	.
12BBB-J	12b- 12bb-J	.
12AAA- 12EE-L	12cc 12cccL	.
12BBB- 12EE-	12b- 12bb-	.
12CC 12EE-J	12a- 12aa-J	.
=51	=51	=51
12DD- 12EE-L	12g 12ggL	.
12CC 12EE-	12a- 12aa-	.
12BBB- 12EE-J	12b- 12bb-J	.
12AAA- 12EE-L	12cc 12cccL	.
12BBB- 12EE-	12b- 12bb-	.
12CC 12EE-J	12a- 12aa-J	.
12DD- 12EE-L	12g 12ggL	.
12CC 12EE-	12a- 12aa-	.
12BBB- 12EE-J	12b- 12bb-J	.
=52	=52	=52
(12AAA-L	12cc 12cccL	.
12BBB-	12b- 12bb-	.
12CCJ	12a- 12aa-J	.
12DD-L	12cc 12cccL	.
12DDn	12b- 12bb-	.
12EE-J	12a- 12aa-J	.
12EEnL	12cc 12cccL	.
12FF	12b- 12bb-	.
12DDJ	12a- 12aa-J	.
=53	=53	=53
12EE-L)	12g 12ggL	.
12EE-'	12f 12ff	.
12FF'J	12e- 12ee-J	.
12GG'L	12d- 12dd-L	.
12AA-'	12c 12cc	.
12BB-'J	12B- 12b-J	.
12C'L	12A- 12a-L	.
12D-'	12B- 12b-	.
12E-'J	12G 12gJ	.
=54	=54	=54
8AA-'	12A- 12a-L	.
.	12BB-	.
8r	.	.
.	12GGJ	.
4r	12AA-'L	.
.	(12ff	.
.	12ggJ)	.
12FF'L	12aa-'L	p
12GG'	12gg'	.
12AA-'J	12ff'J	.
=55	=55	=55
12BB-'L	12ee-'L	.
12C'	12dd-'	.
12D-'J	12cc'J	.
12E-'L	12b-'L	.
12F'	12a-'	.
12G'J	12g'J	.
12A-'L	12f'L	.
12B-'	12g'	.
12c'J	12en'J	.
=56	=56	=56
8F	12fL	.
*	*clefF4	*clefF4
.	12GG	.
8r	.	.
.	12EEnJ	.
4r	12FFL	.
*	*clefG2	*clefG2
.	(12dd-	.
.	12ee-J)	.
12DD-'L	12ff'L	.
12EE-'	12ee-'	.
12FF'J	12dd-'J	.
=57	=57	=57
12GG-'L	12cc'L	.
12AA-'	12b-'	.
12BB-'J	12a-'J	.
12C'L	12g-'L	.
12D-'	12f'	.
12E-'J	12e-'J	.
12F'L	12d-'L	.
12G-'	12e-'	.
12A-'J	12c'J	.
=58	=58	=58
12D-'L	8d-	.
(12EE-	.	.
.	8r	.
12CCJ	.	.
8DD-')	4r	.
8r	.	.
4r	4r	.
=59	=59	=59
12r	4F 4f	.
(12EE-L	.	.
12CCJ	.	.
8DD-')	4r	.
8r	.	.
4r	4r	.
=60	=60	=60
12r	4B- 4f 4b-	.
(12E-L	.	.
12CJ	.	.
8D-')	4r	.
8r	.	.
4r	4r	.
=61	=61	=61
12r	4Bn 4f 4bn	pp
(12EE-L	.	.
12CCJ	.	.
8DD-')	4r	.
8r	.	.
4r	4r	.
=62	=62	=62
4CC	12c 12en 12cc	.
.	(12d-L	.
.	12BnJ	.
4r	12c')	.
.	(12dd-L	.
.	12bnJ	.
4r	12cc')	.
.	(12ddd-L	.
.	12bbnJ	.
=63	=63	=63
2.r	12ccc'L)	.
.	(12ddd-	.
.	12bbnJ	.
.	12ccc'L)	.
.	(12ddd-	.
.	12bbJ	.
.	12ccc'L)	.
.	(12ddd-	.
.	12bbJ	.
=64	=64	=64
2.r	4ccc')	.
.	4r	.
.	(12cccL	p
.	12ddd-	.
.	12bbnJ	.
=65	=65	=65
2.r	4ccc')	.
.	4r	.
.	(12cccL	pp
.	12ddd-	.
.	12bbnJ	.
=66	=66	=66
(12CCL	4ccc')	p
12DD-	.	.
12BBBnJ	.	.
12CCL	4r	.
12DD-	.	.
12BBBJ	.	.
12CCL	4r	.
12DD-	.	.
12BBBJ	.	.
=67	=67	=67
12CCL	2.r	.
12DD-	.	.
12BBBnJ	.	.
12CCL	.	.
12DD-	.	.
12BBBJ	.	.
12CCL	.	.
12DDn	.	.
12BBBJ	.	.
=68	=68	=68
12CCL	2.r	.
12DDn	.	.
12BBBnJ	.	.
12CCL	.	.
12DD	.	.
12BBBJ	.	.
12CCL	.	.
12DD	.	.
12AAAnJ	.	.
=69	=69	=69
12BBB-L	4r	.
12CC	.	.
12AAAJ	.	.
12BBB-L	4r	.
12DD	.	.
12CCJ	.	.
*	*clefF4	*clefF4
12BBB-L	8.C'L	.
12AAA	.	.
12GGGJ)	.	.
.	16EJk	.
=70	=70	=70
*	*^	*
(4FFF [4FF	2F	(4AA	.
8GGG) 8FF]	.	8BB-)	.
8r	.	8r	.
*	*clefG2	*clefG2	*
4r	4r	(8.cL	.
.	.	16eJk)	.
=71	=71	=71	=71
*^	*	*	*
4.F	(4AA	2f	(4c	.
.	8BB-)	.	8d)	.
8r	8r	.	8r	.
4r	4r	(8.ccL	4r	.
.	.	16ffJk)	.	.
*clefG2	*clefG2	*	*	*
*	*	*v	*v	*
=72	=72	=72	=72
8.fL	2c	[4aa	.
16ak	.	.	.
8.cc	.	(8.aaL]	.
16ak	.	16ffk	.
8.b-	4c	8.gg	.
16gJk	.	16eeJk	.
=73	=73	=73	=73
4a	4f	4ff)	.
4r	4r	4r	.
*	*	*clefF4	*clefF4
.	.	(Dq	.
4r	4r	(16CLL)	.
.	.	16BBn	.
.	.	16C	.
.	.	16EJJ)	.
*v	*v	*	*
*clefF4	*	*
=74	=74	=74
*	*^	*
(4FFF [4FF	(8G	4r	.
.	4.F)	.	.
8GGG) 8FF]	.	(8AAL	.
8r	.	8BB-J)	.
*	*clefG2	*clefG2	*
.	.	(dq	.
4r	4r	(16cLL)	.
.	.	16B-	.
.	.	16c	.
.	.	16eJJ)	.
=75	=75	=75	=75
*^	*	*	*
4.F	(4AA	(8g	4r	.
.	.	4.f)	.	.
.	8BB-)	.	(8c#L	.
8r	8r	.	8dJ)	.
.	.	.	ddq	.
4r	4r	(16ccLL	4r	.
.	.	16bn	.	.
.	.	16cc	.	.
.	.	16ffJJ)	.	.
*clefG2	*clefG2	*	*	*
*	*	*v	*v	*
=76	=76	=76	=76
gq	.	.	.
16fLL	2c	[4aa	.
16e	.	.	.
16f	.	.	.
16aJJ	.	.	.
8.ccL	.	(16aaLL]	.
.	.	16gg#	.
.	.	16aa	.
16aJk	.	16ffJJ	.
.	.	aaq	.
8.b-L	4c	16ggnLL	.
.	.	16ff#	.
.	.	16gg	.
16gJk	.	16eeJJ	.
=77	=77	=77	=77
4a	4f	4ffn)	.
4r	4r	4r	.
*clefF4	*clefF4	*clefF4	*clefF4
4r	4r	(8.FL	.
.	.	16AJk	.
=78	=78	=78	=78
4FF	2.FF	4c#	.
4BB-	.	[4d	.
4GG 4E	.	8.dL]	.
.	.	16BnJk	.
=79	=79	=79	=79
[4AA	4.FF	8.cnL	.
.	.	16AJk	.
8AA] 8C	.	8F)	.
8r	8r	8r	.
*	*	*clefG2	*clefG2
4r	4r	(8.fL	.
.	.	16aJk)	.
=80	=80	=80	=80
4F	2.F	(4cc#	.
4B-	.	[4dd	.
4G 4e	.	8.ddL]	.
.	.	16b-Jk	.
=81	=81	=81	=81
[4A	4.F	8.ccnL	.
.	.	16aJk	.
8A] 8c	.	8f)	.
8r	8r	8r	.
4r	4r	8.ffL	.
.	.	16aaJk	.
*v	*v	*	*
*clefG2	*	*
=82	=82	=82
*^	*^	*
4r	4r	4ccc#	4r	.
[4b-	4f	[4ddd	[4dd	.
8.b-L]	8.gL	8.dddL]	8.ddL]	.
16gJk	16fJk	16bbnJk	16ddJk	.
*v	*v	*	*	*
*	*v	*v	*
=83	=83	=83
8.e 8.gL	8.ccn 8.cccnL	.
16f 16aJk	16a 16aaJk	.
4d 4f	[4b- [4bb-	.
8.e 8.gL	8.b-] 8.bb-L]	.
16d 16fJk	16b- 16ggJk	.
=84	=84	=84
*^	*^	*
8.c# 8.eL	4r	8.aaL	8.aL	.
16d 16fJk	.	16ffJk	16aJk	.
[4d	2B-	[4gg	4g	.
8.dL]	.	8.ggL]	4b-	.
16gJk	.	16ddJk	.	.
*v	*v	*	*	*
*clefF4	*	*	*
=85	=85	=85	=85
*^	*	*	*
(8.gL	4c	(8.eeL	4b-	p
16eJk	.	16ggJk	.	.
8f)	8F	8ff)	8a	.
8r	8r	8r	8r	.
(Gq	.	.	.	.
(16FLL)	4r	4r	4r	.
16E	.	.	.	.
16F	.	.	.	.
16AJJ)	.	.	.	.
*	*	*v	*v	*
=86	=86	=86	=86
4FF	2.FF	(8c#	.
.	.	4d)	.
4BB-	.	.	.
.	.	[8d	.
4GG 4E	.	16dLL]	.
.	.	16c#	.
.	.	16d	.
.	.	16BnJJ	.
=87	=87	=87	=87
.	.	(dq	.
[4AA	4.FF	(16cnLL)	.
.	.	16Bn	.
.	.	16c	.
.	.	16AJJ)	.
8AA] 8C	.	16F	.
.	.	(16eLL	.
8r	8r	16f	.
.	.	16eJJ	.
.	.	gq	.
4r	4r	16fLL	.
.	.	16e	.
.	.	16f	.
.	.	16aJJ)	.
=88	=88	=88	=88
4F	2.F	16cc#LK	.
.	.	8dd	.
.	.	8dd	.
4B-	.	.	.
.	.	8dd	.
.	.	[16ddJk	.
4G 4e	.	(16ddLL]	.
.	.	16cc#	.
.	.	16dd	.
.	.	16bnJJ)	.
=89	=89	=89	=89
.	.	(ddq	.
[4A	4.F	(16ccLL)	.
.	.	16bn	.
.	.	16cc	.
.	.	16aJJ)	.
8A] 8c	.	16f	.
.	.	(16eeLL	.
8r	8r	16ff	.
.	.	16eeJJ	.
.	.	ggq	.
4r	4r	16ffLL	.
.	.	16ee	.
.	.	16ff	.
.	.	16aaJJ)	.
*v	*v	*	*
*clefG2	*	*
=90	=90	=90
*^	*	*
4r	4r	16ccc#LK	.
.	.	8ddd	.
.	.	8ddd	.
2dd	(4f [4b-	.	.
.	.	8ddd	.
.	.	16dddJk	.
.	.	(eeeq	.
.	8.g 8.b-L]	(16dddLL)	.
.	.	16ccc#	.
.	.	16ddd	.
.	16f) 16gJk	16bbnJJ)	.
=91	=91	=91	=91
.	.	dddq	.
4cc	(8.e 8.gL	(16cccLL	.
.	.	16bbn	.
.	.	16ccc	.
.	16f 16aJk	16aaJJ)	.
2b-	4d 4f	16bb-LK	.
.	.	8bb-	.
.	.	16bb-Jk	.
.	8.e 8.gL	(16bb-LL	.
.	.	16aa	.
.	.	16bb-	.
.	16d) 16fJk	16gg#JJ)	.
=92	=92	=92	=92
.	.	bb-q	.
4a	(8.c# 8.eL	(16aaLL	.
.	.	16gg#	.
.	.	16aa	.
.	16d 16fJk	16ffJJ)	.
4d 4g	2B-	16ggnLK	.
.	.	8gg	.
.	.	16ggJk	.
.	.	aaq	.
8.dL	.	(16ggLL	.
.	.	16ff#	.
.	.	16gg	.
16gJk)	.	16ddJJ)	.
*clefF4	*clefF4	*	*
=93	=93	=93	=93
.	.	ffnq	.
*	*	*^	*
(8.gL	4c	(16eeLL	4b-	.
.	.	16dd	.	.
.	.	16ee	.	.
16eJk	.	16ggJJ)	.	.
8f)	8F	8ff	8a	f
4r	8r	8r	8r	.
.	12CC 12CL	4r	4r	f
.	12C'' 12c''	.	.	.
8r	.	.	.	.
.	12BBn'' 12Bn''J	.	.	.
*v	*v	*	*	*
*	*v	*v	*
=94	=94	=94
12C'' 12c''L	4r	.
12BB-'' 12B-''	.	.
12AA'' 12A''J	.	.
12GG'' 12G''L	4r	.
12AA'' 12A''	.	.
12BB-'' 12B-''J	.	.
12AA'' 12A''L	12c'' 12cc''L	f
12AA'' 12A''	12cc'' 12ccc''	.
12GG#'' 12G#''J	12bn'' 12bbn''J	.
=95	=95	=95
12AA 12AL	12cc 12cccL	.
12BB- 12B-	12b- 12bb-	.
12C 12cJ	12a 12aaJ	.
12BB- 12B-L	12g 12ggL	.
12AA 12A	12a 12aa	.
12GG 12GJ	12b- 12bb-J	.
12FF 12FL	12a 12aaL	.
12GG 12G	12g 12gg	.
12AA 12AJ	12f 12ffJ	.
=96	=96	=96
12GG 12GL	12e 12eeL	.
12FF 12F	12f 12ff	.
12EE 12EJ	12g 12ggJ	.
12DD 12DL	12f 12ffL	.
12EE 12E	12e 12ee	.
12FF 12FJ	12d 12ddJ	.
12EE 12EL	12c# 12cc#L	.
12DD 12D	12d 12dd	.
12CCn 12CnJ	12e 12eeJ	.
=97	=97	=97
12BBB- 12BB-L	12d 12ddL	.
12AAA 12AA	12cn 12ccn	.
12BBB- 12BB-J	12B- 12b-J	.
12BBB- 12BBnL	12A 12aL	.
12AAAn 12AA	12G 12g	.
12BBB- 12BBJ	12F 12fJ	.
8CC 8C	12E 12eL	.
.	12F 12f	.
8r	.	.
.	12D 12dJ	.
=98	=98	=98
2.r	12C 12cL	.
.	12D 12d	.
.	12E 12eJ	.
.	12F 12fL	.
.	12G 12g	.
.	12E 12eJ	.
.	12D 12dL	.
.	12E 12e	.
.	12F 12fJ	.
=99	=99	=99
12EE 12EL	12G 12gL	.
12FF 12F	12A 12a	.
12DD 12DJ	12F 12fJ	.
12CC 12CL	12E 12eL	.
12DD 12D	12F 12f	.
12EE 12EJ	12G 12gJ	.
12FF 12FL	12A 12aL	.
12GG 12G	12B- 12b-	.
12EE 12EJ	12G 12gJ	.
=100	=100	=100
12DD 12DL	12F 12fL	.
12EE 12E	12G 12g	.
12FF 12FJ	12A 12aJ	.
12GG 12GL	12B- 12b-L	.
12AA 12A	12c 12cc	.
12BB- 12B-J	12d 12ddJ	.
12C 12cL	12e 12eeL	.
12D 12d	12f 12ff	.
12E 12eJ	12g 12ggJ	.
=101	=101	=101
12F 12fL	12a 12aaL	.
12G 12g	12b- 12bb-	.
12e'J	12b- 12bb-J	.
12c'L	12b- 12bb-L	.
12G'	12b- 12bb-	.
12E'J	12b- 12bb-J	.
12C'L	12b- 12bb-L	.
12GG'	12b- 12bb-	.
12EE'J	12b- 12bb-J	.
=102	=102	=102
12CC'L	12b- 12ee 12gg 12bb-L	ff
12EE'	12b- 12ee 12gg 12bb-	.
12GG'J	12b- 12ee 12gg 12bb-J	.
12C'L	12b- 12ee 12gg 12bb-L	.
12GG'	12b- 12ee 12gg 12bb-	.
12EE'J	12b- 12ee 12gg 12bb-J	.
12CC'L	12b- 12ee 12gg 12bb-L	.
12EE'	12b- 12ee 12gg 12bb-	.
12GG'J	12b- 12ee 12gg 12bb-J	.
=103	=103	=103
2.CC; 2.C;	2.b-; 2.ee; 2.gg; 2.bb-;	.
=104	=104	=104
(12BBB-L	4r	p
12EE	.	.
12GGJ	.	.
*	*clefF4	*clefF4
12BB-L	12C 12E 12G 12cL	p
12GG	12C 12E 12G 12c	.
12EEJ	12C 12E 12G 12cJ	.
12BBB-L	12C 12E 12G 12cL	.
12EE	12C 12E 12G 12c	.
12GGJ)	12C 12E 12G 12cJ	.
=105	=105	=105
2BBB-; 2BB-;	2C; 2E; 2G; 2c;	.
4r	(8.CL	.
.	16EJk)	.
=106	=106	=106
*	*^	*
(4AAA [4FF	2F	(4C	.
8BBB-) 8FF]	.	8D)	.
8r	.	8r	.
*	*v	*v	*
*	*clefG2	*clefG2
*	*^	*
4r	4r	(8.cL	.
.	.	16eJk)	.
=107	=107	=107	=107
*^	*	*	*
4.F	(4C	2f	(4A	.
.	8D-)	.	8B-)	.
8r	8r	.	8r	.
4r	4r	4r	(8.ccL	.
.	.	.	16ffJk)	.
*v	*v	*	*	*
*clefG2	*	*	*
*	*v	*v	*
=108	=108	=108
*^	*	*
8.fL	2c	[4aa	.
16ak	.	.	.
8.cc	.	(8.aaL]	.
16ak	.	16ffk	.
8.b-	4c	8.gg	.
16gJk	.	16eeJk	.
=109	=109	=109	=109
4a	4f	4ff)	.
4r	4r	4r	.
*	*	*clefF4	*clefF4
.	.	(Dq	.
4r	4r	(16CLL)	.
.	.	16BBn	.
.	.	16C	.
.	.	16EJJ)	.
*v	*v	*	*
*clefF4	*	*
=110	=110	=110
*	*^	*
(4AAA [4FF	16GLL	4r	.
.	16F	.	.
.	16E	.	.
.	[16FJJ	.	.
8BBB-) 8FF]	4F]	(16C#LL	.
.	.	16D	.
8r	.	16C#	.
.	.	16DJJ)	.
*	*clefG2	*clefG2	*
4r	(16cLL	4r	.
.	16Bn	.	.
.	16c	.	.
.	16eJJ)	.	.
=111	=111	=111	=111
(4C [4F	(16gLL	4r	.
.	16f	.	.
.	16e	.	.
.	[16fJJ	.	.
8D-) 8F]	4f])	(16ALL	.
.	.	16B-	.
8r	.	16A	.
.	.	16B-JJ)	.
.	.	(ddq	.
4r	(16ccLL)	4r	.
.	16bn	.	.
.	16cc	.	.
.	16ffJJ)	.	.
*clefG2	*	*	*
*	*v	*v	*
=112	=112	=112
(gq	.	.
*^	*	*
16fLL)	2c	[4aa	.
16e	.	.	.
16f	.	.	.
16aJJ	.	.	.
16ccLL	.	(16aaLL]	.
16bn	.	16gg	.
16cc	.	16aa	.
16aJJ	.	16ffJJ	.
.	.	aaq	.
16b-LL	4c	16ggnLL	.
16a	.	16ff#	.
16b-	.	16gg	.
16gJJ	.	16eeJJ)	.
*v	*v	*	*
*clefF4	*	*
=113	=113	=113
16fLL	4a 4ff	.
16c	.	.
16A	.	.
16cJJ	.	.
16FLL	4r	.
16C	.	.
16AA	.	.
16CJJ	.	.
*	*clefF4	*clefF4
8FF	(8.FL	.
8r	.	.
.	16AJk)	.
=114	=114	=114
*^	*	*
4FF	2.FF	(4c#	.
4BB-	.	[4d	.
4GG 4E	.	8.dL]	.
.	.	16BnJk	.
=115	=115	=115	=115
[4AA	4.FF	8.cL	.
.	.	16AJk	.
8AA] 8C	.	8F)	.
8r	8r	8r	.
*	*	*clefG2	*clefG2
.	.	(gq	.
4r	4r	(16fLL)	.
.	.	16e	.
.	.	16f	.
.	.	16aJJ)	.
=116	=116	=116	=116
(4F	2.F	8cc#	.
.	.	4dd	.
4B-	.	.	.
.	.	[8dd	.
4G 4e)	.	(16ddLL]	.
.	.	16cc#	.
.	.	16dd	.
.	.	16bnJJ)	.
=117	=117	=117	=117
.	.	ddq	.
4A	(4.F	(16ccLL	.
.	.	16bn	.
.	.	16cc	.
.	.	16aJJ)	.
8A) 8c	.	8f	.
8r	8r	8r	.
.	.	(ggq	.
4r	4r	(16ffLL)	.
.	.	16ee	.
.	.	16ff	.
.	.	16aaJJ)	.
*v	*v	*	*
*clefG2	*	*
=118	=118	=118
*^	*	*
2.dd	4r	(16ccc#LL	.
.	.	16ddd)	.
.	.	16ddd'	.
.	.	16ddd'JJ	.
.	4f [4b-	16dddLL	.
.	.	16ddd	.
.	.	16ddd	.
.	.	16dddJJ	.
.	.	(eeeq	.
.	8.g 8.b-L]	(16dddLL)	.
.	.	16ccc#	.
.	.	16ddd	.
.	16f 16gJk	16bbnJJ	.
=119	=119	=119	=119
.	.	(dddq)	.
4cc	8.e 8.gL	(16cccnLL)	.
.	.	16bbn	.
.	.	16ccc	.
.	16f 16aJk	16aaJJ	.
2b-	4d' 4f'	16bb-LL)	.
.	.	16bb-	.
.	.	16bb-	.
.	.	16bb-JJ	.
.	.	(cccq	.
.	8.e 8.gL	(16bb-LL)	.
.	.	16aa	.
.	.	16bb-	.
.	16d 16fJk	16gg#JJ	.
=120	=120	=120	=120
.	.	(bb-q)	.
4a	(8.c# 8.eL	(16aaLL)	.
.	.	16gg#	.
.	.	16aa	.
.	16d 16fJk	16ffJJ)	.
4d 4g	2B-	16ggnLL	.
.	.	16gg	.
.	.	16gg	.
.	.	16ggJJ	.
.	.	(aaq	.
8.dL	.	(16ggLL)	.
.	.	16ff#	.
.	.	16gg	.
16gJk)	.	16ddJJ)	.
*v	*v	*	*
*clefF4	*	*
=121	=121	=121
*^	*	*
.	.	ffq	.
*	*	*^	*
8.gL	(4c	(16eeLL	4b-	p
.	.	16dd#	.	.
.	.	16ee	.	.
16eJk	.	16ggJJ)	.	.
8f	8F)	8ff	8a	.
8r	8r	8r	8r	.
*	*	*clefF4	*clefF4	*
4r	4r	4r	32FLLL	.
.	.	.	32G	.
.	.	.	32F	.
.	.	.	32EJJJ	.
.	.	.	(40FLLL	.
.	.	.	40G	.
.	.	.	40A	.
.	.	.	40B-	.
.	.	.	40cJJJ)	.
*	*	*v	*v	*
*	*	*clefG2	*clefG2
=122	=122	=122	=122
4FF	(2.FF	(16c#LL	.
.	.	16d)	.
.	.	16d'	.
.	.	16d'JJ	.
4BB-	.	16dLL	.
.	.	16d	.
.	.	16d	.
.	.	16dJJ	.
.	.	(eq	.
4GG 4E)	.	(16dLL)	.
.	.	16c#	.
.	.	16d	.
.	.	16BnJJ)	.
*v	*v	*	*
=123	=123	=123
.	(dq	.
[4FF [4AA	(16cnLL)	.
.	16Bn	.
.	16c	.
.	16AJJ)	.
8FF] 8AA] 8C	(24FLL	.
.	24G	.
.	24A	.
8r	24B-	.
.	24c	.
.	24dJJ)	.
4r	(24eLL	.
.	24f	.
.	24g	.
.	24a	.
.	24b-	.
.	24ccJJ)	.
=124	=124	=124
*^	*	*
4F	(2.F	(24cc#LL	.
.	.	24dd	.
.	.	24cc#	.
.	.	24dd	.
.	.	24cc#	.
.	.	24ddJJ)	.
4B-	.	(24cc#LL	.
.	.	24dd	.
.	.	24cc#JJ	.
.	.	32ddLLL)	.
.	.	32cc#	.
.	.	32dd	.
.	.	32cc#JJJ	.
4G 4e)	.	(24ddLL	.
.	.	24ee	.
.	.	24dd	.
.	.	24cc#	.
.	.	24dd	.
.	.	24bnJJ)	.
=125	=125	=125	=125
[4A	4.F	24ccnLL	.
.	.	24dd	.
.	.	24cc	.
.	.	24bn	.
.	.	24cc	.
.	.	24aJJ	.
8A] 8c	.	24fLL	.
.	.	24g	.
.	.	24a	.
8r	8r	24b-	.
.	.	24cc	.
.	.	24ddJJ	.
4r	4r	24eeLL	.
.	.	24ff	.
.	.	24gg	.
.	.	24aa	.
.	.	24bb-	.
.	.	24cccJJ	.
*v	*v	*	*
*clefG2	*	*
=126	=126	=126
*^	*	*
4r	4r	24ccc#LL	.
.	.	24ddd	.
.	.	24ccc#	.
.	.	24ddd	.
.	.	24ccc#	.
.	.	24dddJJ	.
2dd	(4f [4b-	24ccc#LL	.
.	.	24ddd	.
.	.	24ccc#JJ	.
.	.	32dddLLL	.
.	.	32ccc#	.
.	.	32ddd	.
.	.	32ccc#JJJ	.
.	8.g 8.b-L]	24dddLL	.
.	.	24eee	.
.	.	24ddd	.
.	.	24ccc#	.
.	.	24ddd	.
.	16f) 16gJk	.	.
.	.	24bbnJJ	.
=127	=127	=127	=127
4cc	(8.e 8.gL	24cccnLL	.
.	.	24ddd	.
.	.	24ccc	.
.	.	24bbn	.
.	.	24ccc	.
.	16f 16aJk	.	.
.	.	24aaJJ	.
2b-	4d' 4f'	24bb-LL	.
.	.	24aa	.
.	.	24bb-	.
.	.	24aa	.
.	.	24bb-	.
.	.	24aaJJ	.
.	8.e 8.gL	24bb-LL	.
.	.	24ccc	.
.	.	24bb-	.
.	.	24aa	.
.	.	24bb-	.
.	16d) 16fJk	.	.
.	.	24gg#JJ	.
=128	=128	=128	=128
4a	(8.c# 8.eL	24aaLL	.
.	.	24bb-	.
.	.	24aa	.
.	.	24gg#	.
.	.	24aa	.
.	16d) 16fJk	.	.
.	.	24ffJJ	.
(8.gL	8.B- 8.dL	24ggnLL	.
.	.	24aa	.
.	.	24gg	.
.	.	24ff#	.
.	.	24gg	.
16dJk)	16BnJk	.	.
.	.	24ddJJ	.
(8.eL	8.c#L	24eeLL	.
.	.	24ffn	.
.	.	24ee	.
.	.	24dd	.
.	.	24ee	.
16gJk)	16B-Jk	.	.
.	.	24ggJJ	.
*v	*v	*	*
*clefF4	*	*
=129	=129	=129
8.A (8.fL	24ffLL	.
.	24gg	.
.	24ff	.
.	24ee	.
.	24ff	.
16c 16eJk)	.	.
.	24eeJJ	.
8.B- (8.dL	24ddLL	.
.	24ee	.
.	24dd	.
.	24cc#	.
.	24dd	.
16A 16fJk)	.	.
.	24ffJJ	.
8.G (8.eL	24eeLL	.
.	24ff	.
.	24ee	.
.	24dd	.
.	24ee	.
16B- 16dJk)	.	.
.	24ddJJ	.
=130	=130	=130
8.A (8.cL	24ccnLL	.
.	24dd	.
.	24cc	.
.	24bn	.
.	24cc	.
16G 16eJk)	.	.
.	24eeJJ	.
8.F# (8.dL	24ddLL	.
.	24ee	.
.	24dd	.
.	24cc	.
.	24dd	.
16A 16cJk)	.	.
.	24ccJJ	.
8.G (8.B-L	24b-LL	.
.	24cc	.
.	24b-	.
.	24a	.
.	24b-	.
16Fn 16dJk)	.	.
.	24ddJJ	.
=131	=131	=131
8.E (8.cL	24ccLL	.
.	24dd	.
.	24cc	.
.	24b-	.
.	24cc	.
16G 16B-Jk)	.	.
.	24b-JJ	.
8.F (8.AL	24aLL	.
.	24b-	.
.	24cc	.
.	24b-	.
.	24a	.
16G 16B-Jk)	.	.
.	24gJJ	.
8.A (8.cL	24fLL	.
.	24g	.
.	24a	.
.	24g	.
.	24f	.
16AA 16CJk)	.	.
.	24eJJ	.
=132	=132	=132
4BB- 4D	8dL	.
.	(c#q	.
.	dq	.
.	8g)	.
.	(f#qLL	.
.	gqJJ	.
4r	8b-)	.
.	(aqLL	.
.	b-qJJ	.
.	8dd)	.
.	(cc#qLL	.
.	ddqJJ	.
4r	8gg)	.
.	(ffqLL	.
.	ggqJJ)	.
.	8bb-J	.
=133	=133	=133
4r	2.ddd	.
*clefG2	*	*
8B- 8d 8g	.	.
8r	.	.
4r	.	.
*clefF4	*	*
=134	=134	=134
4r	2.e	.
8C 8G 8B-	.	.
8r	.	.
4r	.	.
=135	=135	=135
2.r	[2.ccn	.
=136	=136	=136
2r;	4cc;]	.
.	4r	.
4r	(8.cnL	.
.	16fJk)	.
=137	=137	=137
*^	*^	*
12FFFL	2.FFF	[4a	2c	.
12FF	.	.	.	.
12FFJ	.	.	.	.
12FFL	.	(8.aL]	.	.
12FF	.	.	.	.
12FFJ	.	.	.	.
.	.	16fk	.	.
12FFL	.	8.g	4B-	.
12FF	.	.	.	.
12FFJ	.	.	.	.
.	.	16eJk)	.	.
=138	=138	=138	=138	=138
12FFFL	2.FFF	(4f	4.A	.
12FF	.	.	.	.
12FFJ	.	.	.	.
12FFL	.	8c)	.	.
12FF	.	.	.	.
.	.	8r	8r	.
12FFJ	.	.	.	.
12FFL	.	4r	(8.fL	.
12FF	.	.	.	.
12FFJ	.	.	.	.
.	.	.	16aJk)	.
=139	=139	=139	=139	=139
12FFFL	2.FFF	[4cc	[4f [4a	.
12FF	.	.	.	.
12FFJ	.	.	.	.
12FFL	.	(8.ccL]	8.f] 8.aL]	.
12FF	.	.	.	.
12FFJ	.	.	.	.
.	.	16ddk	16d 16fk	.
12FFL	.	8.b-	8.e 8.g	.
12FF	.	.	.	.
12FFJ	.	.	.	.
.	.	16ccJk	16c 16eJk	.
=140	=140	=140	=140	=140
12FFFL	2.FFF	4a)	4c 4f	.
12FF	.	.	.	.
12FFJ	.	.	.	.
.	.	.	(dq	.
12FFL	.	4r	4r	.
12FF	.	.	.	.
12FFJ	.	.	.	.
12FFL	.	(16cLL)	4r	.
.	.	16Bn	.	.
12FF	.	.	.	.
.	.	16c	.	.
12FFJ	.	.	.	.
.	.	16fJJ)	.	.
=141	=141	=141	=141	=141
12FFFL	2.FFF	(16aLL	2c	.
.	.	16g#	.	.
12FF	.	.	.	.
.	.	16a	.	.
12FFJ	.	.	.	.
.	.	16g#JJ	.	.
12FFL	.	16aLL	.	.
.	.	16g#	.	.
12FF	.	.	.	.
.	.	16a	.	.
12FFJ	.	.	.	.
.	.	16fJJ	.	.
.	.	.	aq	.
12FFL	.	16gnLL	4B-	.
.	.	16f#	.	.
12FF	.	.	.	.
.	.	16g	.	.
12FFJ	.	.	.	.
.	.	16eJJ)	.	.
=142	=142	=142	=142	=142
.	.	.	(gq	.
12FFFL	2.FFF	4.A	(16fLL)	.
.	.	.	16e	.
12FF	.	.	.	.
.	.	.	16f	.
12FFJ	.	.	.	.
.	.	.	16aJJ)	.
12FFL	.	.	8c	.
12FF	.	.	.	.
.	.	8r	8r	.
12FFJ	.	.	.	.
.	.	.	(gq	.
12FFL	.	4r	(16fLL)	.
.	.	.	16e	.
12FF	.	.	.	.
.	.	.	16f	.
12FFJ	.	.	.	.
.	.	.	16aJJ)	.
=143	=143	=143	=143	=143
12FFFL	2.FFF	(16ccLL	8f 8aL	.
.	.	16dd	.	.
12FF	.	.	.	.
.	.	16cc	8e 8g#J	.
12FFJ	.	.	.	.
.	.	16ddJJ	.	.
12FFL	.	16ccLL	8f 8aL	.
.	.	16dd	.	.
12FF	.	.	.	.
.	.	16cc	8d 8f	.
12FFJ	.	.	.	.
.	.	16ddJJ	.	.
12FFL	.	16b-LL	8e 8gn	.
.	.	16cc	.	.
12FF	.	.	.	.
.	.	16b-	8c 8eJ	.
12FFJ	.	.	.	.
.	.	16ccJJ)	.	.
*	*	*v	*v	*
=144	=144	=144	=144
12FFFL	4FFF	4c 4f 4a	.
12FF	.	.	.
12FFJ	.	.	.
12AAAL	4AAA	4r	.
12FF	.	.	.
12FFJ	.	.	.
12CCL	4CC	(8.cL	.
12FF	.	.	.
12FFJ	.	.	.
.	.	16fJk)	.
=145	=145	=145	=145
12FFFL	4FFF	2a	.
12FF	.	.	.
12FFJ	.	.	.
12AAAL	4AAA	.	.
12FF	.	.	.
12FFJ	.	.	.
12CCL	4CC	(8.c 8.fL	.
12FF	.	.	.
12FFJ	.	.	.
.	.	16f) 16aJk	.
=146	=146	=146	=146
12FFFL	4FFF	2a 2cc	.
12FF	.	.	.
12FFJ	.	.	.
12DDL	4AAA	.	.
12FF	.	.	.
12FFJ	.	.	.
12CCL	4CC	(8.c 8.f 8.aL	.
12FF	.	.	.
12FFJ	.	.	.
.	.	16f) 16a 16ccJk	.
*v	*v	*	*
=147	=147	=147
12FFL	4.f 4.a 4.ff	.
12c	.	.
12AJ	.	.
12FL	.	.
12C	.	.
.	8cc 8ff 8aaL	.
12AAJ	.	.
12FFL	8ff 8aa 8ccc	.
12F	.	.
.	8aa 8ccc 8fffJ	.
12FJ	.	.
=148	=148	=148
12FFL	12gg 12bb- 12ddd- 12eeeL	ff
12F 12G 12B- 12d- 12e	12gg 12bb- 12ddd- 12eee	.
12F 12G 12B- 12d- 12eJ	12gg 12bb- 12ddd- 12eeeJ	.
12F 12G 12B- 12d- 12eL	12gg 12bb- 12ddd- 12eeeL	.
12F 12G 12B- 12d- 12e	12gg 12bb- 12ddd- 12eee	.
12F 12G 12B- 12d- 12eJ	12gg 12bb- 12ddd- 12eeeJ	.
12F 12G 12B- 12d- 12eL	12gg 12bb- 12ddd- 12eeeL	.
12F 12G 12B- 12d- 12e	12gg 12bb- 12ddd- 12eee	.
12F 12G 12B- 12d- 12eJ	12gg 12bb- 12ddd- 12eeeJ	.
=149	=149	=149
8F 8G 8B- 8d- 8eL	8gg 8bb- 8ddd- 8eeeL	.
8F 8G 8B- 8d- 8eJ	8gg 8bb- 8ddd- 8eeeJ	.
8F 8G 8B- 8d- 8eL	8gg 8bb- 8ddd- 8eeeL	.
8F 8G 8B- 8d- 8eJ	8gg 8bb- 8ddd- 8eeeJ	.
8F 8G 8B- 8d- 8eL	8gg 8bb- 8ddd- 8eeeL	.
8F 8G 8B- 8d- 8eJ	8gg 8bb- 8ddd- 8eeeJ	.
=150	=150	=150
8F 8G 8B- 8c 8eL	8gg 8bb- 8ccc 8eeeL	.
8F 8G 8B- 8c 8eJ	8gg 8bb- 8ccc 8eeeJ	.
8F 8G 8B- 8c 8eL	8gg 8bb- 8ccc 8eeeL	.
8F 8G 8B- 8c 8eJ	8gg 8bb- 8ccc 8eeeJ	.
8F 8G 8B- 8c 8eL	8gg 8bb- 8ccc 8eeeL	.
8F 8G 8B- 8c 8eJ	8gg 8bb- 8ccc 8eeeJ	.
=151	=151	=151
4F 4A 4c 4f	4ff 4aa 4ccc 4fff	pp
4r	4r	.
4C 4G	[4c 4e 4g (4cc	.
=152	=152	=152
*^	*	*
4F 4A	4r	4c] 4f 4a)	.
4r	4r	4r	.
4E 4G 4c	4CC 4C	4r	.
=153	=153	=153	=153
2.C 2.E 2.G 2.c	(2.CC	2.r	.
=154	=154	=154	=154
4C 4F 4A	4FFF) 4FF	2r	.
4r;	4r;	.	.
*v	*v	*	*
==	==	==
*-	*-	*-
!!!LOR: Durand 1915, plates 9327/9328, Paul Dukas, ed.
!!!URL-vhv: https://verovio.humdrum.org/?file=beethoven/sonatas/sonata22-1.krn
!!!URL-pdf: https://github.com/craigsapp/beethoven-piano-sonatas/blob/master/reference-edition/sonata22-1.pdf
!!!ENC: Craig Stuart Sapp
!!!END: 2004/09/01/
!!!ONB: Not proof-read yet
